images/icons.svg

<svg viewBox="0 0 50 50" height="50" width="50" xmlns="http://www.w3.org/2000/svg" style="display: none;">
    <symbol id="pause">
        <path d="M25,0 C11.1928806,0 0,11.1928806 0,25 C0,38.8071194 11.1928806,50 25,50 C38.8071194,50 50,38.8071194 50,25 C50,11.1928806 38.8071194,0 25,0 Z M25,3 C12.8497349,3 3,12.8497349 3,25 C3,37.1502651 12.8497349,47 25,47 C37.1502651,47 47,37.1502651 47,25 C47,12.8497349 37.1502651,3 25,3 Z" fill-rule="evenodd"></path>
        <path d="M16.34,37l0,-24l5,0l0,24zM33.66,37l0,-24l-5,0l0,24z" stroke-linejoin="round" />
    </symbol>

    <symbol id="play">
        <path d="M25,0 C11.1928806,0 0,11.1928806 0,25 C0,38.8071194 11.1928806,50 25,50 C38.8071194,50 50,38.8071194 50,25 C50,11.1928806 38.8071194,0 25,0 Z M25,3 C12.8497349,3 3,12.8497349 3,25 C3,37.1502651 12.8497349,47 25,47 C37.1502651,47 47,37.1502651 47,25 C47,12.8497349 37.1502651,3 25,3 Z" fill="#000000" fill-rule="evenodd"></path>
        <path d="M37,25L16.34,37L16.34,13z" stroke-linejoin="round" stroke="black"/>
    </symbol>
    <symbol id="linkedin">
        <path
          style="fill-rule:evenodd"
          d="M25,50 C38.8071194,50 50,38.8071194 50,25 C50,11.1928806 38.8071194,0 25,0 C11.1928806,0 0,11.1928806 0,25 C0,38.8071194 11.1928806,50 25,50 z M25,47 C37.1502651,47 47,37.1502651 47,25 C47,12.8497349 37.1502651,3 25,3
C12.8497349,3 3,12.8497349 3,25 C3,37.1502651 12.8497349,47 25,47 z M14,20.1180479 L14,34.6581834 L18.7100851,34.6581834 L18.7100851,20.1180479 L14,20.1180479 z M16.6646962,13 C15.0534058,13 14,14.0858611 14,15.5115122
C14,16.9076331 15.0222711,18.0247614 16.6035556,18.0247614 L16.6336556,18.0247614 C18.2759867,18.0247614 19.2988222,16.9076331 19.2988222,15.5115122 C19.2682519,14.0858611 18.2759867,13 16.6646962,13 z
M30.5769213,20.1180479 C28.076176,20.1180479 26.9565501,21.5293199 26.3314108,22.5193527 L26.3314108,20.4598644 L21.6207614,20.4598644 C21.6828427,21.8242356 21.6207614,35 21.6207614,35 L26.3314108,35 L26.3314108,26.8795887
C26.3314108,26.445032 26.3619812,26.0115368 26.4865199,25.7004084 C26.826932,24.83226 27.6020069,23.9334233 28.9032674,23.9334233 C30.6083381,23.9334233 31.2899149,25.2667202 31.2899149,27.2206333 L31.2899149,34.999614
L35.9998119,34.999614 L36,26.6627446 C36,22.1966439 33.6763743,20.1180479 30.5769213,20.1180479 z"/>
    </symbol>
    <symbol id="mail">
        <path
          style="fill-rule:evenodd"
          d="M25,0 C11.1928806,0 0,11.1928806 0,25 C0,38.8071194 11.1928806,50 25,50 C38.8071194,50 50,38.8071194 50,25 C50,11.1928806 38.8071194,0 25,0 z M25,3 C12.8497349,3 3,12.8497349 3,25 C3,37.1502651 12.8497349,47 25,47
C37.1502651,47 47,37.1502651 47,25 C47,12.8497349 37.1502651,3 25,3 z M37,31.9646738 L37,17 L28.262875,25.4642914 L37,31.9646738 z M13,31.9646738 L21.7369375,25.4633812 L13,17 L13,31.9646738 z M22.9140156,26.604743
L13,33 L37,33 L27.08575,26.604743 L25,28.625083 L22.9140156,26.604743 z M13.72,17 L25,26.0581312 L36.28,17 L13.72,17 z"/>
    </symbol>
    <symbol id="soundcloud">
        <path
          style="fill-rule:evenodd"
          d="M25,0 C11.1928806,0 0,11.1928806 0,25 C0,38.8071194 11.1928806,50 25,50 C38.8071194,50 50,38.8071194 50,25 C50,11.1928806 38.8071194,0 25,0 z M25,3 C12.8497349,3 3,12.8497349 3,25 C3,37.1502651 12.8497349,47 25,47
C37.1502651,47 47,37.1502651 47,25 C47,12.8497349 37.1502651,3 25,3 z M11.2046957,26.4994198 L11,28.2899843 L11.2046957,30.0498224 C11.2122973,30.1238678 11.258563,30.1755611 11.3170241,30.1755611 C11.3736257,30.1755611 11.4197274,30.1243715 11.4286961,30.0505779
L11.6713997,28.2899843 L11.4286961,26.4989161 C11.4200555,26.4251226 11.3733523,26.3731145 11.3170241,26.3731145 C11.2586177,26.3731145 11.2122426,26.4251226 11.2046957,26.4994198 z M12.8503005,25.3946571
C12.8503005,25.3952867 12.5750031,28.2897324 12.5750031,28.2897324 L12.8503005,31.1207736 C12.8580661,31.1967079 12.9071756,31.2514864 12.9668398,31.2514864 C13.0253555,31.2514864 13.0733712,31.1979672 13.0829963,31.1215921
L13.3961375,28.2897324 L13.0833791,25.3946571 C13.0737541,25.3177153 13.0258477,25.2645739 12.9668398,25.2645739 C12.9075037,25.2645739 12.8583943,25.3194783 12.8503005,25.3946571 z M14.396866,24.761745
L14.1500608,28.2908658 L14.396866,31.7053294 C14.4034832,31.8110456 14.4745771,31.8908837 14.5613116,31.8908837 C14.6470618,31.8908837 14.7178823,31.8109197 14.7254838,31.7053294 L15.0061953,28.2908658
L14.7254838,24.7609894 C14.7179369,24.6552103 14.6471712,24.5753722 14.5613116,24.5753722 C14.4745771,24.5753722 14.403866,24.6552732 14.396866,24.761745 z M15.9578691,25.0172521 L15.7251733,28.2909287
L15.9578691,31.7335372 C15.9645956,31.8549944 16.0449317,31.9468586 16.1461038,31.9468586 C16.2457993,31.9468586 16.3264635,31.8549314 16.3339557,31.733852 L16.5983703,28.2909287 L16.3339557,25.0157409
C16.3268463,24.8947875 16.2460727,24.8036159 16.1461038,24.8036159 C16.044877,24.8036159 15.9642128,24.8955431 15.9578691,25.0172521 z M17.5195284,22.9658916 L17.3001764,28.292251 L17.5195284,31.7345446
C17.5252159,31.8690983 17.6326223,31.9751293 17.7456069,31.9751293 C17.85799,31.9751293 17.972123,31.8685946 17.972123,31.7337261 L18.205475,28.292251 L17.950412,22.9658916 C17.9436307,22.8306454 17.8434977,22.7241106 17.7311147,22.7241106
C17.6182395,22.7241106 17.5248877,22.8305824 17.5195284,22.9658916 z M19.0799298,21.7485496 C19.0799298,21.7489903 18.8752888,28.2933213 18.8752888,28.2933213 L19.0803673,31.7138925 C19.085508,31.8633686 19.1890863,31.9816775 19.3161256,31.9816775
C19.4420165,31.9816775 19.5458683,31.8633686 19.5518839,31.7126332 L19.7832125,28.2933213 L19.5518839,21.7485496 C19.5455948,21.5974994 19.4419618,21.4795682 19.3160709,21.4795682 C19.1890863,21.4795682 19.085508,21.5977513 19.0799298,21.7485496
z M20.6267141,20.9640207 L20.4502919,28.2940139 L20.6269329,31.6585473 C20.6312532,31.8388756 20.7830113,31.9814257 20.9374491,31.9814257 C21.0916135,31.9814257 21.2481294,31.8388756 21.2481294,31.657477
L21.4195204,28.2942028 L21.2073871,20.9639577 C21.2024652,20.7820553 21.064215,20.6391905 20.9103787,20.6391905 C20.7556128,20.6391905 20.6309251,20.7816146 20.6267141,20.9640207 z M22.1736078,21.4133933
L22.025459,28.2954621 L22.1736078,31.6071059 C22.1771625,31.8179717 22.3266784,31.9846998 22.5091162,31.9846998 C22.6910072,31.9846998 22.8440778,31.8182235 22.8440778,31.6048392 L23.0066094,28.2958399
L22.8385544,21.4128896 C22.8341794,21.1998201 22.6872885,21.032966 22.5053975,21.032966 C22.3232331,21.032966 22.1771625,21.1997571 22.1736078,21.4133933 z M23.7558296,19.3647403 L23.6005168,28.2972251
L23.7562671,31.5388532 C23.7590015,31.7759119 23.947455,31.9709107 24.1542288,31.9709107 C24.3605652,31.9709107 24.5521358,31.7757859 24.5521358,31.5353272 L24.7023627,28.2972251 L24.5239717,19.3640477
C24.5209639,19.1245334 24.341862,18.9290938 24.1355257,18.9290938 C23.9286971,18.9290938 23.7589468,19.1245334 23.7558296,19.3647403 z M34.2236391,24.3767843 C33.9495448,20.8031482 31.3466882,18 28.1717992,18
C27.3948523,18 26.641093,18.1759838 25.9723183,18.4738655 C25.7124428,18.589593 25.6441927,18.7089094 25.6441927,18.9399865 L25.6441927,31.5248122 C25.6441927,31.7674747 25.8069977,31.9696515 26.0125684,31.9933888
C26.0213184,31.9945221 35.4956182,32 35.5570323,32 C37.4589032,32 39,30.2245469 39,28.0346031 C39,25.8446593 37.4574267,24.0688914 35.5556651,24.0688914 C35.0838752,24.0688914 34.6335774,24.1788262 34.2236391,24.3767843
z"/>
    </symbol>
</svg>

<svg xmlns="http://www.w3.org/2000/svg" style="display: none;">
    <symbol id="evald-play" viewBox="0 0 48 48">
        <g class="nc-icon-wrapper">
            <path d="M20 33l12-9-12-9v18zm4-29C12.95 4 4 12.95 4 24s8.95 20 20 20 20-8.95 20-20S35.05 4 24 4zm0 36c-8.82 0-16-7.18-16-16S15.18 8 24 8s16 7.18 16 16-7.18 16-16 16z" />
        </g>
    </symbol>
    <symbol id="evald-pause" viewBox="0 0 48 48">
        <g class="nc-icon-wrapper">
            <path d="M18 32h4V16h-4v16zm6-28C12.95 4 4 12.95 4 24s8.95 20 20 20 20-8.95 20-20S35.05 4 24 4zm0 36c-8.82 0-16-7.18-16-16S15.18 8 24 8s16 7.18 16 16-7.18 16-16 16zm2-8h4V16h-4v16z" />
        </g>
    </symbol>
    <symbol id="evald-mail" viewBox="0 0 50 50">
        <g class="nc-icon-wrapper">
            <description>Created with Sketch (http://www.bohemiancoding.com/sketch)</description>
            <g id="Page-1" stroke="none" stroke-width="1" fill="none" fill-rule="evenodd">
                <g id="Mail">
                    <path d="M25 0C11.193 0 0 11.193 0 25s11.193 25 25 25 25-11.193 25-25S38.807 0 25 0zm0 3C12.85 3 3 12.85 3 25s9.85 22 22 22 22-9.85 22-22S37.15 3 25 3zm12 28.965V17l-8.737 8.464 8.737 6.5zm-24 0l8.737-6.502L13 17v14.965zm9.914-5.36L13 33h24l-9.914-6.395L25 28.625l-2.086-2.02zM13.72 17L25 26.058 36.28 17H13.72zm0 0" id="Oval-1" />
                </g>
            </g>
        </g>
    </symbol>
    <symbol id="evald-sc" viewBox="0 0 50 50">
        <g class="nc-icon-wrapper">
            <description>Created with Sketch (http://www.bohemiancoding.com/sketch)</description>
            <g id="Page-1" stroke="none" stroke-width="1" fill="none" fill-rule="evenodd">
                <g id="SoundCloud">
                    <path d="M25 0C11.193 0 0 11.193 0 25s11.193 25 25 25 25-11.193 25-25S38.807 0 25 0zm0 3C12.85 3 3 12.85 3 25s9.85 22 22 22 22-9.85 22-22S37.15 3 25 3zM11.205 26.5L11 28.29l.205 1.76c.007.074.054.126.112.126.057 0 .103-.052.112-.125l.242-1.761-.242-1.791c-.009-.074-.056-.126-.112-.126-.058 0-.105.052-.112.126zm1.645-1.105l-.275 2.895.275 2.83c.008.077.057.131.117.131.058 0 .106-.053.116-.13l.313-2.831-.313-2.895c-.01-.077-.057-.13-.116-.13-.06 0-.109.054-.117.13zm1.547-.633l-.247 3.529.247 3.414c.006.106.078.186.164.186.086 0 .157-.08.164-.186l.281-3.414-.28-3.53c-.008-.106-.079-.186-.165-.186-.086 0-.157.08-.164.187zm1.56.255l-.232 3.274.233 3.443c.007.121.087.213.188.213.1 0 .18-.092.188-.213l.264-3.443-.264-3.275c-.007-.121-.088-.212-.188-.212-.101 0-.182.092-.188.213zm1.563-2.051l-.22 5.326.22 3.443c.005.134.113.24.226.24.112 0 .226-.106.226-.241l.233-3.442-.255-5.326c-.006-.135-.107-.242-.219-.242-.113 0-.206.107-.211.242zm1.56-1.217l-.205 6.544.205 3.42c.006.15.11.269.236.269s.23-.119.236-.27l.231-3.419-.231-6.544c-.006-.152-.11-.27-.236-.27-.127 0-.23.119-.236.27zm1.547-.785l-.177 7.33.177 3.365c.004.18.156.322.31.322.155 0 .311-.142.311-.324l.172-3.363-.213-7.33c-.005-.182-.143-.325-.297-.325s-.28.143-.283.325zm1.547.45l-.149 6.881.149 3.312c.003.211.153.378.335.378.182 0 .335-.167.335-.38l.163-3.31-.168-6.882c-.005-.213-.152-.38-.334-.38-.182 0-.328.167-.331.38zm1.582-2.05l-.155 8.933.155 3.242c.003.237.191.432.398.432.207 0 .398-.195.398-.436l.15-3.238-.178-8.933c-.003-.24-.182-.435-.388-.435-.207 0-.377.196-.38.436zm10.468 5.013C33.95 20.803 31.347 18 28.172 18c-.777 0-1.53.176-2.2.474-.26.116-.328.235-.328.466v12.585c0 .242.163.445.369.468.008.002 9.483.007 9.544.007C37.459 32 39 30.225 39 28.035s-1.543-3.966-3.444-3.966c-.472 0-.922.11-1.332.308zm0 0" id="Oval-1" />
                </g>
            </g>
        </g>
    </symbol>
    <symbol id="evald-li" viewBox="0 0 50 50">
        <g class="nc-icon-wrapper">
            <description>Created with Sketch (http://www.bohemiancoding.com/sketch)</description>
            <g id="Page-1" stroke="none" stroke-width="1" fill="none" fill-rule="evenodd">
                <g id="LinkedIn">
                    <path d="M25 50c13.807 0 25-11.193 25-25S38.807 0 25 0 0 11.193 0 25s11.193 25 25 25zm0-3c12.15 0 22-9.85 22-22S37.15 3 25 3 3 12.85 3 25s9.85 22 22 22zM14 20.118v14.54h4.71v-14.54H14zM16.665 13C15.053 13 14 14.086 14 15.512c0 1.396 1.022 2.513 2.604 2.513h.03c1.642 0 2.665-1.117 2.665-2.513-.03-1.426-1.023-2.512-2.634-2.512zm13.912 7.118c-2.5 0-3.62 1.411-4.246 2.401v-2.06h-4.71c.062 1.365 0 14.541 0 14.541h4.71v-8.12c0-.435.031-.868.156-1.18.34-.868 1.115-1.767 2.416-1.767 1.705 0 2.387 1.334 2.387 3.288V35H36v-8.337c0-4.466-2.324-6.545-5.423-6.545zm0 0" id="Oval-1" />
                </g>
            </g>
        </g>
    </symbol>
</svg>
